X:2113
T:Ghuillyn my chree
T:(Re-barred and time signature changed as in Manx National Musuc) 
C:Traditional
O:Isle of Man
Z:Manx National Music
B:Kiaull Vannin #113 (Revised)
M:3/4 
L:1/8 
Q:140 
K:D 
fdc|B3 d ed|e2z ged|c3 edc|{e}d2z fdc|B3 ^def| 
g2z bag|f2 fe dc|B2z fdc|B2z FF^A|B3|| 

